X: 10777
T: Dr. Shaw
R: strathspey
M: 4/4
K: Dmajor
A,|D<D F>D A>D d>B|{B}=c2 G>c E>GC>E|D<D F>D A>D (3dcB|(3AGF (3GFE F>D [D2A,2]:|
g|(3fed (3cde (3dcB (3AB=c|=C<CE>C E<GG>g|(3fed (3cde (3dcB (3ABc|dD FD F<A A>g|
(3fed (3cde (3dcB (3AB=c|=C<C E>C E<GG>E|(3DFA (3dfa (3EGB (3egb|(3agf (3gfe f<d d2||

